!!!OTL: Jn des Waldes duestern Gruenden.
!!!OTL-incipit: IN DES WALDES DUESTERN GRUENDEN
!!!COM: Volksweise
!!!ARE: Europa, Mitteleuropa, Deutschland
!!!SCT: F0855
!!!TXL: @@DE
!!!YEM: Copyright 1995, estate of Helmut Schaffrath.
**kern	**text
*ICvox	*
*clefG2	*
*M4/4	*
*met(c)	*
*k[b-e-]	*
*B-:	*
!LO:TX:a:t=Marſchmäßig.	!
!LO:TX:a:t=P:only the highest voice encoded:problem	!
{8f	1._Jn
8f	des
=1	=1
4.b-/	Waldes
8b-/	.
4f	dü-
4f	-ſtern
=2	=2
4d	Gründen,
4B-	.
4r}	.
{8b-/	in
8b-/	den
=3	=3
4a	Höhlen
4b-/	.
4cc/	tief
4dd/	ver-
=4	=4
(8cc/L	-ſteckt,
8ff	.
8een	.
8ddJ	.
4cc)}	.
{8b-/	in
8b-/	den
=5	=5
4.a	Höhlen
8b-/	.
4cc/	tief
4cc/	ver-
=6	=6
2f	-ſteckt,
4r}	.
{8f	ſchläft
8f	der
=7	=7
4.ee-	Räuber
8cc	.
4.dd	al-
8b-	-ler-
=8	=8
8dd/L	-kühnſter,
8ccJ	.
4cc/	.
4r}	.
{8f	ſchläft
8f	der
=9	=9
4.ee-	Räuber
8cc	.
4.dd	al-
8b-	-ler-
=10	=10
8dd/L	-kühnſter,
8ccJ	.
4cc/	.
4r}	.
{8f	bis
8f	ihn
=11	=11
4b-/	ſei-
4b-/	-ne
4cc/	Ro-
4cc/	-ſa
=12	=12
(>4.ff/	weckt,
8dd/	.
4b-/)}	.
{8b-/	bis
8b-/	ihn
=13	=13
4g	ſei-
8ee-/L	-ne
8ccJ	.
4b-/	Ro-
4a	-ſa
=14	=14
2b-	weckt.
4r}	.
==	==
!!!AGN: erzaehlendes Volks - Lied, Ballade, Raeuber
!!!ONB: ESAC (Essen Associative Code) Database: FINK
!!!AMT: simple quadruple
!!!AIN: vox
!!!EED: Helmut Schaffrath
!!!EEV: 1.0
!!Text: Vulvius
!!!GTL: Romanzen und Balladen
!!!source: Musikalischer Hausschatz der Deutschen. Eine Sammlung von über 1000 Liedern und Gesängen mit Singstimmen und Klavierbegleitung. Leipzig, Litterarisches Verlags-Haus.
!!!page: 610
!!!URL-scan: https://www.digitale-sammlungen.de/en/view/bsb11144622?page=546
!!!ENC: Anna Maria Matuszewska
!!!EEV: 2024/08/07
*-	*-